X: 20023
M: 2/4
L: 1/8
K: F
|:\
cefa | gcfe | dc =Bc/d/ | G2=B2 |\
c4 :||: fcdB |\
gdfd | aefd | bfge | c'baf |\
cef2 | defB | c3[ecC] | [f4F4] :|


